X: 22075
T: Knocknagoshel, The
R: polka
M: 2/4
K: Gmajor
|:D|G2 ED|GB d2|ed BG|A/B/A/G/ ED|
GA/G/ ED|GB d^c/d/|ed c/B/A|G2 G:|
|:(3A/B/c/|d2 d^c/d/|ed BG|c2 cB/c/|ed Bc|
d2 d^c/d/|ed BG|Ac BA|G2 G:|

